X: 117
T:Missa Mater patris / Gloria
N: Derived from Jos1001b-Missa_Mater_patris-Gloria.krn
C: Josquin des Prez
%%abc-version 2.0
%%abcx-abcm2ps-target-version 5.9.1 (29 Sep 2008)
%%abc-creator hum2abc beta
%%abcx-conversion-date 2019/02/12 16:15:43
%%abc-edited-by Jesse Rodin
%%abc-edited-by Will Watson 16/08/2011
%%abcx-initial-encoding-date 2011/08/16/
%%humdrum-veritas 2584517321
%%humdrum-veritas-data 2612329625
%%linebreak <none>
%%barnumbers 0
L: 1/4
M: 2/1
Q: 1/2=120
%%staves [1 2 3 4]
V: 1 clef=treble-8
V: 2 clef=treble-8
V: 3 clef=treble-8
V: 4 clef=bass
K: F
[V:1] z8 | 
[V:2] z8 | 
[V:3] z8 | 
[V:4] G,6G,2 | 
[V:1] z8 | 
[V:2] z8 | 
[V:3] z8 | 
[V:4] G,4F,4 | 
[V:1] z8 | 
[V:2] G6G2 | 
[V:3] z8 | 
[V:4] B,6G,2 | 
[V:1] z8 | 
[V:2] G4F4 | 
[V:3] z8 | 
[V:4] B,4C4 | 
[V:1] z8 | 
[V:2] B6G2 | 
[V:3] z8 | 
[V:4] D4G,2D2- | 
[V:1] z8 | 
[V:2] B4c4 | 
[V:3] z8 | 
[V:4] D2CB,A,4 | 
[V:1] z8 | 
[V:2] d4G2d2- | 
[V:3] z8 | 
[V:4] G,2D3CB,2- | 
[V:1] z8 | 
[V:2] d2cBA4 | 
[V:3] z8 | 
[V:4] B,2A,G,F,2C2 | 
[V:1] z8 | 
[V:2] G2d3cB2- | 
[V:3] z8 | 
[V:4] B,3CD_ED2- | 
[V:1] z8 | 
[V:2] B2AGF2c2 | 
[V:3] z8 | 
[V:4] D2CB,A,4 | 
[V:1] z8 | 
[V:2] B3cd_ed2- | 
[V:3] z8 | 
[V:4] G,2G,,A,,B,,C,D,E, | 
[V:1] z8 | 
[V:2] d2cBA4 | 
[V:3] z8 | 
[V:4] F,D,G,3^F,F,E, | 
[V:1] z4d4 | 
[V:2] G4B4 | 
[V:3] z4G4 | 
[V:4] G,4G,,4 | 
[V:1] d4d4 | 
[V:2] B4B4 | 
[V:3] G4G4 | 
[V:4] G,,4G,,4 | 
[V:1] d4z2d2- | 
[V:2] A4z2B2- | 
[V:3] F4z2G2- | 
[V:4] D,4z2G,,2- | 
[V:1] d2d2d2d2 | 
[V:2] B2B2B2B2 | 
[V:3] G2G2G2G2 | 
[V:4] G,,2G,,2G,,2G,,2 | 
[V:1] d4d4 | 
[V:2] B4A4 | 
[V:3] G4F4 | 
[V:4] G,,4D,4 | 
[V:1] z2f4f2 | 
[V:2] z2d4d2 | 
[V:3] z2B4B2 | 
[V:4] z2B,,4B,,2 | 
[V:1] f4f4 | 
[V:2] d4d4 | 
[V:3] B4B4 | 
[V:4] B,,4B,,4 | 
[V:1] f4z2f2 | 
[V:2] c4z2c2 | 
[V:3] A4z2A2 | 
[V:4] F,4z2F,2 | 
[V:1] f2f2f4 | 
[V:2] d2c2d4 | 
[V:3] B2A2B4 | 
[V:4] B,,2F,2B,,4 | 
[V:1] e4d4 | 
[V:2] c4A4 | 
[V:3] G4F4 | 
[V:4] C,4D,2D,2 | 
[V:1] z8 | 
[V:2] z2D2E2F2 | 
[V:3] z8 | 
[V:4] E,2F,2G,2A,2 | 
[V:1] z8 | 
[V:2] GABcd2e2- | 
[V:3] z8 | 
[V:4] B,3A,G,F,G,2- | 
[V:1] z8 | 
[V:2] edd4^c2 | 
[V:3] z8 | 
[V:4] G,F,D,2E,4 | 
[V:1] z4g4 | 
[V:2] d4B4 | 
[V:3] z4G4 | 
[V:4] D,4G,,4 | 
[V:1] e4f4 | 
[V:2] c4A4 | 
[V:3] A4F4 | 
[V:4] C,4D,4 | 
[V:1] d4e4 | 
[V:2] B4G4 | 
[V:3] G4E4 | 
[V:4] G,,4C,4 | 
[V:1] c4f4 | 
[V:2] A4F4 | 
[V:3] F4D4 | 
[V:4] A,,4D,4 | 
[V:1] e8 | 
[V:2] G6A2 | 
[V:3] E6F2 | 
[V:4] C,3B,,C,4 | 
[V:1] d8 | 
[V:2] B8 | 
[V:3] G8 | 
[V:4] G,,4z2B,2 | 
[V:1] z8 | 
[V:2] z4B4 | 
[V:3] z8 | 
[V:4] A,2B,3A,B,G, | 
[V:1] z8 | 
[V:2] A2B3ABG | 
[V:3] z8 | 
[V:4] A,2G,2z2G,2 | 
[V:1] z8 | 
[V:2] A2G2z2G2 | 
[V:3] z8 | 
[V:4] F,2G,3A,B,G, | 
[V:1] z8 | 
[V:2] F2G3ABG | 
[V:3] z8 | 
[V:4] A,2G,2z2D2 | 
[V:1] z8 | 
[V:2] A2G2z2d2 | 
[V:3] z8 | 
[V:4] C2D3EFD | 
[V:1] z8 | 
[V:2] c2d3efd | 
[V:3] z8 | 
[V:4] E2D2z2D,2 | 
[V:1] z8 | 
[V:2] e2d2z2d2 | 
[V:3] z8 | 
[V:4] C,2D,3E,F,D, | 
[V:1] z8 | 
[V:2] c2d3cdB | 
[V:3] z8 | 
[V:4] E,2D,2z2B,2 | 
[V:1] z8 | 
[V:2] c2B2z2B2 | 
[V:3] z8 | 
[V:4] A,2B,3A,B,G, | 
[V:1] z8 | 
[V:2] A2B3ABG | 
[V:3] z8 | 
[V:4] A,2G,3F,G,E, | 
[V:1] z8 | 
[V:2] A4G4 | 
[V:3] z8 | 
[V:4] ^F,G,A,F,G,4 | 
[V:1] z2d2d2d2 | 
[V:2] z2B2A2G2 | 
[V:3] z2G2F2D2 | 
[V:4] z2G,,2D,2G,,2 | 
[V:1] d4d2f2- | 
[V:2] B4A2d2- | 
[V:3] G4F2B2- | 
[V:4] G,,A,,B,,C,D,2B,,2- | 
[V:1] f2f2f2f2 | 
[V:2] d2d2d2d2 | 
[V:3] B2B2B2B2 | 
[V:4] B,,2B,,2B,,2B,,2 | 
[V:1] f4f4 | 
[V:2] c4d4 | 
[V:3] A4B4 | 
[V:4] F,4D,4 | 
[V:1] g4_e4- | 
[V:2] B4c4- | 
[V:3] G4G4- | 
[V:4] _E,4C,4- | 
[V:1] e4d4 | 
[V:2] c4A4 | 
[V:3] G4F4 | 
[V:4] C,4D,4- | 
[V:1] z8 | 
[V:2] z2d2d2d2 | 
[V:3] z8 | 
[V:4] D,4z2G,2 | 
[V:1] z8 | 
[V:2] B3GG2c2- | 
[V:3] z8 | 
[V:4] G,2G,2E,3C, | 
[V:1] z8 | 
[V:2] c2c2A3F | 
[V:3] z8 | 
[V:4] C,2F,4F,2 | 
[V:1] z4z2d2 | 
[V:2] F4z2B2 | 
[V:3] z4z2G2 | 
[V:4] D,3B,,B,,2G,,2 | 
[V:1] d2d2d4 | 
[V:2] B2B2B4 | 
[V:3] G2G2G4 | 
[V:4] B,,2G,,2B,,3C, | 
[V:1] d4z2d2 | 
[V:2] A4z2B2 | 
[V:3] F4z2G2 | 
[V:4] D,4z2G,,2 | 
[V:1] d2d2d4 | 
[V:2] B2B2B4 | 
[V:3] G2G2G4 | 
[V:4] B,,2G,,2B,,3C, | 
[V:1] d8 ||  
[V:2] A8 ||  
[V:3] F8 ||  
[V:4] D,8 ||  
[V:1] [M:2/1]z8 | 
[V:2] [M:2/1]z4d4 | 
[V:3] [M:2/1]z8 | 
[V:4] [M:2/1]G,4G,2G,2 | 
[V:1] z8 | 
[V:2] d2d2c2A2 | 
[V:3] z8 | 
[V:4] F,2D,2E,2F,2 | 
[V:1] z8 | 
[V:2] B2c2d4 | 
[V:3] z8 | 
[V:4] G,4z4 | 
[V:1] z2b4b2 | 
[V:2] z2g4g2 | 
[V:3] z2d4d2 | 
[V:4] G,6G,2 | 
[V:1] b2b2b4 | 
[V:2] g2g2g4 | 
[V:3] d2d2d4 | 
[V:4] G,2G,2G,4 | 
[V:1] a4z2f2 | 
[V:2] f4z2d2 | 
[V:3] d4z4 | 
[V:4] D,8 | 
[V:1] g2e2f2g2 | 
[V:2] e2c2d2e2 | 
[V:3] z8 | 
[V:4] z8 | 
[V:1] a2b4ag | 
[V:2] f2g4fe | 
[V:3] z8 | 
[V:4] z8 | 
[V:1] a4z4 | 
[V:2] f4z4 | 
[V:3] d6d2 | 
[V:4] z8 | 
[V:1] a6a2 | 
[V:2] f6f2 | 
[V:3] d4d2d2 | 
[V:4] D,6D,2 | 
[V:1] a4b2b2 | 
[V:2] f4g2g2 | 
[V:3] d2d2d4 | 
[V:4] D,4G,2G,2 | 
[V:1] b2b2a4 | 
[V:2] g2g2f4 | 
[V:3] d4d4- | 
[V:4] G,2G,2D,4 | 
[V:1] b4g4 | 
[V:2] g4e4 | 
[V:3] d4c4 | 
[V:4] G,4C,4 | 
[V:1] a4z4 | 
[V:2] f4z2f2- | 
[V:3] A4z4 | 
[V:4] F,8 | 
[V:1] z8 | 
[V:2] fef2g2a2- | 
[V:3] z8 | 
[V:4] B,3A,B,2C2 | 
[V:1] z8 | 
[V:2] agfed2z2 | 
[V:3] z8 | 
[V:4] D3CB,A,G,2 | 
[V:1] z8 | 
[V:2] d2e2f2g2 | 
[V:3] z8 | 
[V:4] z2G,2A,2B,2 | 
[V:1] z8 | 
[V:2] e3cc2z2 | 
[V:3] z8 | 
[V:4] C2A,3F,F,2 | 
[V:1] z8 | 
[V:2] c2d2e2f2- | 
[V:3] z8 | 
[V:4] z2F,2G,2A,2 | 
[V:1] z8 | 
[V:2] fedcd2e2- | 
[V:3] z8 | 
[V:4] B,3A,G,F,G,2 | 
[V:1] z8 | 
[V:2] edd4^c2 | 
[V:3] z8 | 
[V:4] C,2D,2E,4 | 
[V:1] z4z2f2 | 
[V:2] d4z2d2 | 
[V:3] z4z2A2 | 
[V:4] D,4z2D,2 | 
[V:1] f2f2e4 | 
[V:2] d2d2c4 | 
[V:3] A2A2A4 | 
[V:4] D,2D,2A,,4 | 
[V:1] f4d4 | 
[V:2] d4B4 | 
[V:3] A4G4 | 
[V:4] D,4G,,4 | 
[V:1] e8 | 
[V:2] c8 | 
[V:3] G8 | 
[V:4] C,8 | 
[V:1] f4z2f2 | 
[V:2] d4z2d2 | 
[V:3] B4z2A2 | 
[V:4] B,,4z2D,2 | 
[V:1] f2f2d4 | 
[V:2] c2d2B4 | 
[V:3] A2A2G4 | 
[V:4] A,,2D,2G,,4 | 
[V:1] e4f4 | 
[V:2] c4d4 | 
[V:3] G4B4 | 
[V:4] C,4B,,4 | 
[V:1] z2f2g4 | 
[V:2] z2d2e4 | 
[V:3] z2F2c4 | 
[V:4] z2D,2C,4 | 
[V:1] a4f4 | 
[V:2] c4d4 | 
[V:3] A4B4 | 
[V:4] F,4D,4 | 
[V:1] g4e4 | 
[V:2] B4c4 | 
[V:3] G4G4 | 
[V:4] _E,4C,4 | 
[V:1] f4z4 | 
[V:2] d4z4 | 
[V:3] B4z4 | 
[V:4] B,,4z4 | 
[V:1] f8 | 
[V:2] d8 | 
[V:3] A8 | 
[V:4] D,8 | 
[V:1] g4g4- | 
[V:2] B4_e4- | 
[V:3] G4c4- | 
[V:4] _E,4C,4- | 
[V:1] g4f8 | 
[V:2] e4d8 | 
[V:3] c4A8 | 
[V:4] C,4!fermata!D,8 | 
[V:1] [M:3/1]z12 | 
[V:2] [M:3/1]z12 | 
[V:3] [M:3/1]z12 | 
[V:4] [M:3/1]B,4B,4C4 | 
[V:1] z12 | 
[V:2] B4B4c4 | 
[V:3] z12 | 
[V:4] D6CB,A,4 | 
[V:1] z12 | 
[V:2] d6cBA4 | 
[V:3] z12 | 
[V:4] B,4G,4F,4 | 
[V:1] z12 | 
[V:2] B4G4F4 | 
[V:3] z12 | 
[V:4] B,4B,4C4 | 
[V:1] d4d4e4 | 
[V:2] B4B4c4 | 
[V:3] z12 | 
[V:4] D6CB,A,4 | 
[V:1] f6e2c4 | 
[V:2] d6c2A4 | 
[V:3] z12 | 
[V:4] D,6E,2F,4 | 
[V:1] d4B4A4 | 
[V:2] B4G4F4 | 
[V:3] z12 | 
[V:4] B,,6C,2D,4 | 
[V:1] d8e4 | 
[V:2] B8c4 | 
[V:3] G8G4 | 
[V:4] G,,4G,4E,4 | 
[V:1] f4g8 | 
[V:2] d4B4c4 | 
[V:3] A4G8 | 
[V:4] D,4G,4E,4 | 
[V:1] f4g8 | 
[V:2] d4B4c4 | 
[V:3] A4G8 | 
[V:4] D,4G,4E,4 | 
[V:1] f6e2d2c2 | 
[V:2] d6c2B2A2 | 
[V:3] A4D8 | 
[V:4] D,4B,,4D,4 | 
[V:1] d4e6d2 | 
[V:2] B4c6B2 | 
[V:3] G4E4G4 | 
[V:4] G,,4C,6D,2 | 
[V:1] g8^f4 | 
[V:2] G4A8 | 
[V:3] C4F8 | 
[V:4] _E,4D,8 | 
[V:1] g12- | 
[V:2] G12- | 
[V:3] D4_E8 | 
[V:4] B,,4C,8 | 
[V:1] g12 |]  
[V:2] G12 |]  
[V:3] D12 |]  
[V:4] G,,12 |]  



